X:5
T:Walzer GC 
M:3/4
L:1/8
K:Gmaj
DD |: "G"D2 GB dg | Pe2 dG BD | "D7"DF FA Af | Pe2 dF cD | DF FA Af | Pe2 dF cF | "G"GB Bd dg | 
Pe2 dB B2 | DG GB dg | Pe2dG BG | "D7"DF FA Af | Pe2 dF c2 | DF FA Af | Pe2 dF cF | "G"GB dG Bd | 
g2z2DD :: "D7"D2F2A2 | c2B2PA2 | "G"G2B2d2 | g2f2e2 | "D7"d2 fe d2 | fe dc BA | "G"GB e3d | dg Bd GB | "D7"D2F2A2 | 
c2B2PA2 | "G"G2B2d2 | g2f2e2 | "D7"d2fed2 | fe dc BA | "G"GB, DG Bd |1 g2z2DD :|2 g2z2z2 |: [K:Cmaj] "C"c2 CE Gc | Pe2 Gc eg | 
"G7"gf fG BG | "C"ec cG c2 | Pc2 CE Gc | e2 Gc eg | "G7"gf fG Bd |1 "C"c2z2cc :|2 "C"c2z2GG |: "G7"GB da gf | 
"C"eg fe dc | "G7"Bd Ac GB | "C"AG EC G,2 | "G7"GB da gf | "C"eg fe dc | "G7"Bd Ac GB |1 "C"c2z2GG :|2 "C"c2z2z2 |] 

